X:215
T: Die verkaufte Muellerin
N: Q0086N
O: Suedosteuropa, Rumaenien, Siebenbuergen
N: Verzierungen (Vor- und Nachschlaege) . Taktart entsprechend
N: den Taktstrichen in 3/4 geaendert.
R: Ballade, Menschenhandel, Rettung, Hinrichtung
M: 3/4
L: 1/4
K: G
D | G2D | G2c | B2A | G2
D | G2D | G2c | B2A | G2z |
d2g | e2d | c2B | B2d | A2

@@@ Tune index: 1270
